!!!COM: Gabriel Faure/
!!!CNT: Francais
!!!TXO: Francais
!!!OTL: L'Absent
!!!OPS: Op. 5
!!!ONM: No. 3
!!!LYR: Victor Hugo
!!!ENC: Jacob Pegg
!!!YOR: Album of Twenty Songs (Vingt Me/lodies,) Volume I
!!!YOR: Edward B. Marks Music Corporation, RCA Building, Radio
!!!YOR: City, New York 20, N.Y.
!!!ODT: 1871/
!!NB: Vocal melody and text only encoded.
!!NB: First instance of melodic material only encoded.
**kern	**silbe
*clef G2	*
*k[b-e-a-]	*
*M4/4	*
*MM[andante]	*
!!created: 8/21/03 0:03
!!proofed and posted: 8/21/03 20:43
!!edit time: 40 min.
=1	=1
1r	.
=2	=2
2r	.
2r	.
=3	=3
2r	.
4r	.
{4a-	{Sen-
=4	=4
4a-	-tiers
4g	ou\
8g	l'her-
8f	-be
8g	se
8a-	ba-
=5	=5
4b-	-lan-
4b-}	-ce,}
4r	.
8r	.
{8cc	{Val-
=6	=6
4.b-	-lons,
8b-	co^-
4a-	-teaux,
12b-	bois
12cc	che-
12dd	-ve-
=7	=7
2ee-}	-lus,}
4r	.
{4dd	{Pour-
=8	=8
8dd	-quoi
8dd	ce
2ee-	deuil
4dd	et
=9	=9
8dd	ce
8dd	si-
2ee-	-len-
4cc}	-ce?}
=10	=10
1r	.
=11	=11
2r	.
2r	.
=12	=12
2r	.
4r	.
{4g	{<<Ce-
=13	=13
2g	-lui
4.g	qui
8g	ve-
=14	=14
2d	-nait
4.d	ne
8d	vient
=15	=15
2.d}	plus!>>}
4r	.
=16	=16
1r	.
=17	=17
2r	.
4r	.
{4dd-	{Pour-
=18	=18
4dd-	-quoi
4cc	per-
8cc	-sonne
8b-	a\
8cc	ta
8dd-	fe-
=19	=19
4ee-	-ne^-
4ee-}	-tre?}
2r	.
=20	=20
{8b-	{Et
8b-	pour-
4a-	-quoi
8a-	ton
8g	jar-
8a-	-din
8b-	sans
=21	=21
2cc}	fleurs?}
4r	.
{8cc	{O
8cc	mai-
=22	=22
4.ee-	-son
8ee-	ou\
4ee-	donc
8dd	est
8ee-	ton
=23	=23
4cc	mai^-
4cc}	-tre?}
2r	.
=24	=24
1r	.
=25	=25
2r	.
2r	.
=26	=26
2r	.
8r	.
{8g	{<<Je
8g	ne
8g	sais
=27	=27
4b-}	pas!>>}
4r	.
2r	.
=28	=28
4r	.
{4g	{il
4.b-	est
8f	ail-
=29	=29
4g}	-leurs>>}
4r	.
*MM100	*
{2ee-	{Chien,
=30	=30
2b-	veil-
4.cc	-le au
8dd	lo-
=31	=31
2dd}	-gis!}
2r	.
=32	=32
2r	.
{4.dd	{<<Pour-
8dd	-quoi
=33	=33
4cc#	fai-
4an}	-re?}
2r	.
=34	=34
{2.dd	{La
4dd	mai-
=35	=35
2dd	-son
2b-	est
=36	=36
2f	vide
4.g	a\
8an	pre/-
=37	=37
1an}	-sent!>>}
=38	=38
1r	.
=39	=39
4r	.
{4g-	{En-
4b-	-fant
4dd-	qui
=40	=40
4dd-	pleu-
4cc-	-res~
4ee--}	~tu?}
8r	.
{8gg-	{<<Mon
=41	=41
2gg-	pe\-
2dd-}	-re!>>}
=42	=42
1r	.
=43	=43
{2gn	{Fem-
4gn}	-me,}
8r	.
{8ddn	{qui
=44	=44
4dd	pleu-
4cc	-res~
4ee-}	~tu?}
8r	.
{8gg	{<<L'ab-
=45	=45
1gg}	-sent!>>}
!! rest
=53	=53
*MM[andante]	*
4r	.
{4g	{Ou\
8g	donc
8f	est~
8g	~il
8a	al-
=54	=54
2b-}	-le/?}
2r	.
=55	=55
4r	.
8r	.
{8b-	{<<Dans
2a-	l'om-
=56	=56
2g}	-bre!>>}
2r	.
=57	=57
2r	.
{[2g	{Flots
=58	=58
4g]	|
4g	qui
4cc	ge/-
4cc	-mis-
=59	=59
2b-	-sez
4.ff	sur
8ee-	l'e/-
=60	=60
1dd}	-cueil,}
=61	=61
1r	.
=62	=62
{2ee-	{D'ou\
4.dd	ve-
8cc	-nez~
=63	=63
1cc}	~vous?}
=64	=64
4r	.
{4cc	{<<Du
4.b-	ba-
8a-	-gne
=65	=65
2.a-	som-
4a-}	-bre!>>}
=66	=66
1r	.
=67	=67
{4a-	{Et
4a-	qu'ap-
4.g	-por-
8f	-tez~
=68	=68
1f}	~vous?}
=69	=69
2r	.
2r	.
=70	=70
1r	.
=71	=71
{2.d	{Un
4e-	cer-
=72	=72
1c}	-cueil!>>}
*-	*-
